X:1
T:Title
%%score { ( 1 2 ) | ( 3 4 ) }
L:1/8
Q:1/4=96
M:4/4
K:Ab
V:1 treble nm="Grand Piano"
V:2 treble 
V:3 bass 
V:4 bass 
V:1
 .A2 z2 z4 | [Fd]2 [FA]2 [Ec]3 c | z2 .B2 z4 | B6 z2 | CE[CA][DB] [Ec]2 [CEA]2 | %5
w: S.~L.~Krebs|||||
 [Fd]2 [FA]2 [Ec]3 [Ec] | [Fd][B,,Df][Ee][Fd] [Ec]2 [DB]2 |[M:8/4] [CA]8 z8 |[M:4/4] [DA]8 | %9
w: ||||
 [CA]8 |] %10
w: |
V:2
 C-[CE][CA][DB] [Ec]2 [CEA]2 | x8 | cB=D-[DF] B2 [Dc]2 | z4 z DED | x8 | x8 | x8 |[M:8/4] x16 | %8
[M:4/4] x8 | x8 |] %10
V:3
 [A,,E,]2 [A,,E,][A,,E,] [A,,A,]2 A,,2 | [A,,A,]2 [A,,A,]2 [A,,A,]3 [A,E] | %2
 [F,A,=D]2 [B,,A,]2 [F,A,D]2 [B,,A,]2 | [E,G,E]6 CB, | A,B, [A,,E,]2 [A,,A,]2 A,,2 | %5
 [A,,A,]2 [A,,A,]2 [A,,A,]3 [A,,A,] | .[D,A,]2 A,-[D,A,] [E,A,]2 [E,G,]2 |[M:8/4] [A,,A,]8 z8 | %8
[M:4/4] [D,F,]8 | [A,,E,]8 |] %10
V:4
 x8 | x8 | x8 | z4 z2 [E,G,]2 | [A,,E,]2 z2 z4 | x8 | z2 .C,2 z4 |[M:8/4] x16 |[M:4/4] x8 | x8 |] %10

